icon-themes/breeze_svg/cmd/32/splitwindow.svg

<svg viewBox="0 0 32 32" xmlns="http://www.w3.org/2000/svg"><path d="m4 4v12h1 22 1v-1-11zm1 5h6v6h-6zm7 0h15v6h-15zm-8 10v9h7 1 16v-8-1h-1-22zm1 1h6v7h-6zm7 0h15v7h-15z" fill="#4d4d4d"/></svg>

<svg xmlns="http://www.w3.org/2000/svg" viewBox="0 0 32 32">
 <path 
     style="fill:#4d4d4d" 
     d="M 4 4 L 4 16 L 5 16 L 27 16 L 28 16 L 28 15 L 28 4 L 4 4 z M 5 9 L 11 9 L 11 15 L 5 15 L 5 9 z M 12 9 L 27 9 L 27 15 L 12 15 L 12 9 z M 4 19 L 4 28 L 11 28 L 12 28 L 28 28 L 28 20 L 28 19 L 27 19 L 5 19 L 4 19 z M 5 20 L 11 20 L 11 27 L 5 27 L 5 20 z M 12 20 L 27 20 L 27 27 L 12 27 L 12 20 z "
     />
</svg>
